P2
100 100
255
0 0 0 0 0 0 0 0 0 0 0 0 0 0 0 0 0 0 0 0 0 0 0 5 5 5 5 5 5 5 5 5 5 5 5 5 5 5 5 5 5 5 5 5 5 5 5 5 5 5 5 5 5 5 5 5 5 5 5 5 5 5 5 5 5 5 5 5 5 5 5 5 5 5 5 5 5 5 5 5 5 5 5 5 5 5 5 5 5 5 5 5 5 5 5 5 5 5 5 5 
0 0 0 0 0 0 0 0 0 0 0 0 0 0 0 0 0 0 0 0 0 0 5 5 5 5 5 5 5 5 5 5 5 5 5 5 5 5 5 5 5 5 5 5 5 5 5 5 5 5 5 5 5 5 5 5 5 5 5 5 5 5 5 5 5 5 5 5 5 5 5 5 5 5 5 5 5 5 5 5 5 5 5 5 5 5 5 5 5 5 5 5 5 5 5 5 5 5 5 5 
0 0 0 0 0 0 0 0 0 0 0 0 0 0 0 0 0 0 0 0 0 5 5 5 5 5 5 5 5 5 5 5 5 5 5 5 5 5 5 5 5 5 5 5 5 5 5 5 5 5 5 5 5 5 5 5 5 5 5 5 5 5 5 5 5 5 5 5 5 5 5 5 5 5 5 5 5 5 5 5 5 5 5 5 5 5 5 5 5 5 5 5 5 5 5 5 5 5 5 5 
0 0 0 0 0 0 0 0 0 0 0 0 0 0 0 0 0 0 0 0 5 5 5 5 5 5 5 5 5 5 5 5 5 5 5 5 5 5 5 5 5 5 5 5 5 5 5 5 5 5 5 5 5 5 5 5 5 5 5 5 5 5 5 5 5 5 5 5 5 5 5 5 5 5 5 5 5 5 5 5 5 5 5 5 5 5 5 5 5 5 5 5 5 5 5 5 5 5 5 5 
0 0 0 0 0 0 0 0 0 0 0 0 0 0 0 0 0 0 0 5 5 5 5 5 5 5 5 5 5 5 5 5 5 5 5 5 5 5 5 5 5 5 5 5 5 5 5 5 5 5 5 5 5 5 5 5 5 5 5 5 5 5 5 5 5 5 5 5 5 5 5 5 5 5 5 5 5 5 5 5 5 5 5 5 5 5 5 5 5 5 5 5 5 5 5 5 5 5 5 5 
0 0 0 0 0 0 0 0 0 0 0 0 0 0 0 0 0 0 5 5 5 5 5 5 5 5 5 5 5 5 5 5 5 5 5 5 5 5 5 5 5 5 5 5 5 5 5 5 5 5 5 5 5 5 5 5 5 5 5 5 5 5 5 5 5 5 5 5 5 5 5 5 5 5 5 5 5 5 5 5 5 5 5 5 5 5 5 5 5 5 5 5 5 5 5 5 5 5 5 5 
0 0 0 0 0 0 0 0 0 0 0 0 0 0 0 0 0 5 5 5 5 5 5 5 5 5 5 5 5 5 5 5 5 5 5 5 5 5 5 5 5 5 5 5 5 5 5 10 10 10 10 10 10 10 5 5 5 5 5 5 5 5 5 5 5 5 5 5 5 5 5 5 5 5 5 5 5 5 5 5 5 5 5 5 5 5 5 5 5 5 5 5 5 5 5 5 5 5 5 5 
0 0 0 0 0 0 0 0 0 0 0 0 0 0 0 0 5 5 5 5 5 5 5 5 5 5 5 5 5 5 5 5 5 5 5 5 5 5 5 10 10 10 10 10 10 10 10 10 10 10 10 10 10 10 10 10 10 10 10 10 10 10 5 5 5 5 5 5 5 5 5 5 5 5 5 5 5 5 5 5 5 5 5 5 5 5 5 5 5 5 5 5 5 5 5 5 5 5 5 5 
0 0 0 0 0 0 0 0 0 0 0 0 0 0 0 5 5 5 5 5 5 5 5 5 5 5 5 5 5 5 5 5 5 5 5 10 10 10 10 10 10 10 10 10 10 10 10 10 10 10 10 10 10 10 10 10 10 10 10 10 10 10 10 10 10 10 5 5 5 5 5 5 5 5 5 5 5 5 5 5 5 5 5 5 5 5 5 5 5 5 5 5 5 5 5 5 5 5 5 5 
0 0 0 0 0 0 0 0 0 0 0 0 0 0 0 5 5 5 5 5 5 5 5 5 5 5 5 5 5 5 5 5 10 10 10 10 10 10 10 10 10 10 10 10 10 10 10 10 10 10 10 10 10 10 10 10 10 10 10 10 10 10 10 10 10 10 10 10 10 5 5 5 5 5 5 5 5 5 5 5 5 5 5 5 5 5 5 5 5 5 5 5 5 5 5 5 5 5 5 5 
0 0 0 0 0 0 0 0 0 0 0 0 0 0 5 5 5 5 5 5 5 5 5 5 5 5 5 5 5 10 10 10 10 10 10 10 10 10 10 10 10 10 10 10 10 10 10 10 10 10 10 10 10 10 10 10 10 10 10 10 10 10 10 10 10 10 10 10 10 10 10 10 5 5 5 5 5 5 5 5 5 5 5 5 5 5 5 5 5 5 5 5 5 5 5 5 5 5 5 5 
0 0 0 0 0 0 0 0 0 0 0 0 0 5 5 5 5 5 5 5 5 5 5 5 5 5 5 10 10 10 10 10 10 10 10 10 10 10 10 10 10 10 10 10 10 10 10 10 10 10 10 10 10 10 10 10 10 15 15 15 15 15 15 15 15 10 10 10 10 10 10 10 10 10 5 5 5 5 5 5 5 5 5 5 5 5 5 5 5 5 5 5 5 5 5 5 5 5 5 5 
0 0 0 0 0 0 0 0 0 0 0 0 5 5 5 5 5 5 5 5 5 5 5 5 5 10 10 10 10 10 10 10 10 10 10 10 10 10 10 10 10 10 10 10 10 10 10 10 10 10 10 10 10 15 15 15 15 15 15 15 20 20 20 20 15 15 15 15 15 10 10 10 10 10 10 10 5 5 5 5 5 5 5 5 5 5 5 5 5 5 5 5 5 5 5 5 5 5 5 5 
0 0 0 0 0 0 0 0 0 0 0 0 5 5 5 5 5 5 5 5 5 5 5 10 10 10 10 10 10 10 10 10 10 10 10 10 10 10 10 10 10 10 10 10 10 10 10 10 10 10 10 15 15 15 15 15 15 15 20 30 40 35 25 20 20 20 15 15 15 15 15 10 10 10 10 10 10 10 5 5 5 5 5 5 5 5 5 5 5 5 5 5 5 5 5 5 5 5 5 5 
0 0 0 0 0 0 0 0 0 0 0 5 5 5 5 5 5 5 5 5 5 10 10 10 10 10 10 10 10 10 10 10 10 10 10 10 10 10 10 10 10 10 10 10 10 10 10 10 10 15 15 15 15 15 15 15 15 20 20 25 35 51 30 25 20 20 20 15 15 15 15 15 15 10 10 10 10 10 10 10 5 5 5 5 5 5 5 5 5 5 5 5 5 5 5 5 5 5 5 5 
0 0 0 0 0 0 0 0 0 0 5 5 5 5 5 5 5 5 5 5 10 10 10 10 10 10 10 10 10 10 10 10 10 10 10 10 10 10 10 10 10 10 10 10 10 10 10 15 15 15 15 15 15 15 15 15 20 20 20 25 35 71 51 25 25 25 25 20 15 15 15 15 15 15 10 10 10 10 10 10 10 5 5 5 5 5 5 5 5 5 5 5 5 5 5 5 5 5 5 5 
0 0 0 0 0 0 0 0 0 0 5 5 5 5 5 5 5 5 10 10 10 10 10 10 10 10 10 10 10 10 10 10 10 10 10 10 10 10 10 10 10 10 10 10 10 15 15 15 15 15 15 15 15 15 15 20 20 20 25 25 30 66 71 35 30 30 51 25 20 15 15 15 15 15 15 15 10 10 10 10 10 10 10 5 5 5 5 5 5 5 5 5 5 5 5 5 5 5 5 5 
0 0 0 0 0 0 0 0 0 5 5 5 5 5 5 5 5 10 10 10 10 10 10 10 10 10 10 10 10 10 10 10 10 10 10 10 10 10 10 10 10 10 10 10 15 15 15 15 15 15 15 15 15 15 20 20 20 20 25 25 30 40 76 51 45 76 51 25 20 15 15 15 15 15 15 15 15 10 10 10 10 10 10 10 5 5 5 5 5 5 5 5 5 5 5 5 5 5 5 5 
0 0 0 0 0 0 0 0 0 5 5 5 5 5 5 5 10 10 10 10 10 10 10 10 10 10 10 10 10 10 10 10 10 10 10 10 10 10 10 10 10 10 10 15 15 15 15 15 15 15 15 15 15 20 20 20 20 20 25 30 35 40 51 91 71 45 35 25 25 20 15 15 15 15 15 15 15 15 10 10 10 10 10 10 10 5 5 5 5 5 5 5 5 5 5 5 5 5 5 5 
0 0 0 0 0 0 0 0 5 5 5 5 5 5 5 10 10 10 10 10 10 10 10 10 10 10 10 10 10 10 10 10 10 10 10 10 10 10 10 10 10 15 15 15 15 15 15 15 15 15 15 15 15 20 20 20 20 25 30 30 35 40 51 127 56 40 35 30 25 20 20 15 15 15 15 15 15 15 15 10 10 10 10 10 10 10 5 5 5 5 5 5 5 5 5 5 5 5 5 5 
0 0 0 0 0 0 0 0 5 5 5 5 5 5 10 10 10 10 10 10 10 10 10 10 10 10 10 10 10 10 10 10 10 10 10 10 10 10 10 10 15 15 15 15 15 15 15 15 15 15 15 15 20 20 20 20 25 25 30 40 40 81 81 219 71 51 35 30 25 20 20 20 20 15 15 15 15 15 15 15 10 10 10 10 10 10 10 5 5 5 5 5 5 5 5 5 5 5 5 5 
0 0 0 0 0 0 0 5 5 5 5 5 5 10 10 10 10 10 10 10 10 10 10 10 10 10 10 10 10 10 10 10 10 10 10 10 10 10 10 15 15 15 15 15 15 15 15 15 15 15 15 20 20 20 20 25 25 35 45 142 51 66 188 255 153 56 45 40 30 25 20 20 20 20 15 15 15 15 15 15 10 10 10 10 10 10 10 10 5 5 5 5 5 5 5 5 5 5 5 5 
0 0 0 0 0 0 0 5 5 5 5 5 10 10 10 10 10 10 10 10 10 10 10 10 10 10 10 10 10 10 10 10 10 10 10 10 10 10 15 15 15 15 15 15 15 15 15 15 15 20 20 20 20 20 25 25 30 66 71 91 76 137 255 255 122 107 61 76 35 25 20 20 20 20 20 15 15 15 15 15 15 10 10 10 10 10 10 10 10 5 5 5 5 5 5 5 5 5 5 5 
0 0 0 0 0 0 5 5 5 5 5 10 10 10 10 10 10 10 10 10 10 10 10 10 10 10 10 10 10 10 10 10 10 10 10 10 15 15 15 15 15 15 15 15 15 15 15 15 20 20 20 20 25 25 25 30 35 40 51 178 255 255 255 255 255 255 107 71 51 30 25 20 20 20 20 20 20 15 15 15 15 15 10 10 10 10 10 10 10 10 5 5 5 5 5 5 5 5 5 5 
0 0 0 0 0 0 5 5 5 5 10 10 10 10 10 10 10 10 10 10 10 10 10 10 10 10 10 10 10 10 10 10 10 10 10 15 15 15 15 15 15 15 15 15 15 15 15 20 20 20 25 25 25 25 30 30 35 40 86 255 255 255 255 255 255 255 193 56 40 30 30 25 20 20 20 20 20 20 15 15 15 15 10 10 10 10 10 10 10 10 10 5 5 5 5 5 5 5 5 5 
0 0 0 0 0 5 5 5 5 10 10 10 10 10 10 10 10 10 10 10 10 10 10 10 10 10 10 10 10 10 10 10 10 10 15 15 15 15 15 15 15 15 15 15 15 20 20 20 25 25 25 25 25 30 30 30 35 40 76 255 255 255 255 255 255 255 255 86 40 35 30 25 25 25 25 20 20 20 20 20 15 15 15 10 10 10 10 10 10 10 10 10 5 5 5 5 5 5 5 5 
0 0 0 0 0 5 5 5 10 10 10 10 10 10 10 10 10 10 10 10 10 10 10 10 10 10 10 10 10 10 10 10 10 15 15 15 15 15 15 15 15 15 15 20 20 20 25 30 30 30 30 30 30 30 30 35 40 45 56 255 255 255 255 255 255 255 127 56 40 35 35 30 25 25 25 25 25 25 25 20 20 15 15 15 10 10 10 10 10 10 10 10 10 5 5 5 5 5 5 5 
0 0 0 0 0 5 5 5 10 10 10 10 10 10 10 10 10 10 10 10 10 10 10 10 10 10 10 10 10 10 10 10 15 15 15 15 15 15 15 15 15 20 20 20 20 25 40 40 40 81 45 35 35 40 45 45 45 51 61 91 255 255 255 255 255 255 76 56 51 40 40 102 35 30 25 25 25 30 35 40 25 20 15 15 10 10 10 10 10 10 10 10 10 5 5 5 5 5 5 5 
0 0 0 0 5 5 5 10 10 10 10 10 10 10 10 10 10 10 10 10 10 10 10 10 10 10 10 10 10 10 10 15 15 15 15 15 15 15 15 20 20 20 20 20 25 30 45 142 102 91 51 40 40 51 209 188 66 255 234 117 117 255 255 255 255 112 91 255 81 66 56 122 91 35 35 30 30 35 40 56 30 20 15 15 15 10 10 10 10 10 10 10 10 10 5 5 5 5 5 5 
0 0 0 0 5 5 10 10 10 10 10 10 10 10 10 10 10 10 10 10 10 10 10 10 10 10 10 10 10 15 15 15 15 15 15 15 15 20 20 20 20 20 20 25 25 30 40 168 127 234 96 71 51 61 158 255 255 255 255 255 255 255 255 255 255 255 255 255 255 112 127 255 81 45 40 45 45 45 56 66 35 25 20 15 15 10 10 10 10 10 10 10 10 10 10 5 5 5 5 5 
0 0 0 0 5 5 10 10 10 10 10 10 10 10 10 10 10 10 10 10 10 10 10 10 10 10 10 10 15 15 15 15 15 15 20 20 20 20 20 20 20 20 25 25 25 30 45 61 255 255 255 255 71 255 255 255 255 255 255 255 255 255 255 255 255 255 255 255 255 255 255 255 76 61 51 66 127 71 66 86 71 30 20 15 15 10 10 10 10 10 10 10 10 10 10 5 5 5 5 5 
0 0 0 5 5 10 10 10 10 10 10 10 10 10 10 10 10 10 10 10 10 10 10 10 10 10 10 15 15 15 15 20 20 20 20 20 20 20 20 20 20 25 25 25 30 35 40 56 122 255 255 255 255 255 255 255 255 255 255 255 255 255 255 255 255 255 255 255 255 255 255 255 255 102 71 255 255 193 255 66 56 25 20 20 15 15 10 10 10 10 10 10 10 10 10 10 5 5 5 5 
0 0 0 5 5 10 10 10 10 10 10 10 10 10 10 10 10 10 10 10 10 10 10 10 10 15 15 15 15 20 20 20 20 20 20 20 20 20 20 20 25 25 25 25 30 35 40 56 91 255 255 255 255 255 255 255 255 255 255 255 255 255 255 255 255 255 255 255 255 255 255 255 255 255 127 255 255 255 112 51 35 25 20 20 15 15 10 10 10 10 10 10 10 10 10 10 5 5 5 5 
0 0 0 5 10 10 10 10 10 10 10 10 10 10 10 10 10 10 10 10 10 10 10 15 15 15 15 20 20 20 20 20 20 20 20 20 20 20 20 25 25 25 25 30 35 45 45 56 76 137 255 255 255 255 255 255 255 255 255 255 255 255 255 255 255 255 255 255 255 255 255 255 255 255 255 255 255 255 255 45 30 25 20 20 15 15 15 10 10 10 10 10 10 10 10 10 10 5 5 5 
0 0 5 5 10 10 10 10 10 10 10 10 10 10 10 10 10 10 10 10 10 15 15 15 15 20 20 20 20 20 20 20 20 20 20 20 20 25 25 25 25 25 30 45 56 224 66 91 255 255 255 255 255 255 255 255 255 255 255 255 255 255 255 255 255 255 255 255 255 255 255 255 255 255 255 255 147 91 51 40 30 25 25 20 20 15 15 10 10 10 10 10 10 10 10 10 10 5 5 5 
0 0 5 10 10 10 10 10 10 10 10 10 10 10 10 10 10 10 10 15 15 15 15 20 25 25 25 25 25 25 20 20 20 20 20 25 25 25 25 25 30 30 35 45 142 255 255 255 255 255 255 255 255 255 255 255 255 255 255 255 255 255 255 255 255 255 255 255 255 255 255 255 255 255 255 255 255 255 56 40 30 30 25 20 20 15 15 10 10 10 10 10 10 10 10 10 10 10 5 5 
0 0 5 10 10 10 10 10 10 10 10 10 10 10 10 10 15 15 15 15 15 20 20 25 56 40 25 25 25 25 25 25 25 25 25 25 25 30 30 30 30 35 35 45 66 178 255 255 255 255 255 255 255 255 255 255 255 255 255 255 255 255 255 255 255 255 255 255 255 255 255 255 255 255 255 255 255 255 255 45 35 35 30 20 20 15 15 15 10 10 10 10 10 10 10 10 10 10 5 5 
0 0 5 10 10 10 10 10 10 10 10 10 10 15 15 15 15 15 15 15 20 20 25 25 35 91 35 30 30 30 30 30 40 35 30 30 30 30 30 30 35 35 40 45 66 142 255 255 255 255 255 255 255 255 255 255 255 255 255 255 255 255 255 255 255 255 255 255 255 255 255 255 255 255 255 255 255 255 132 61 51 45 86 25 20 15 15 15 10 10 10 10 10 10 10 10 10 10 5 5 
0 0 10 10 10 10 10 10 10 10 15 15 15 15 15 15 15 15 20 20 20 20 25 25 45 56 40 35 35 30 35 35 86 45 35 35 30 30 30 35 35 35 45 214 255 255 255 255 255 255 255 255 255 255 255 255 255 255 255 255 255 255 255 255 255 255 255 255 255 255 255 255 255 255 255 255 255 255 255 255 158 81 45 25 20 15 15 15 10 10 10 10 10 10 10 10 10 10 10 5 
0 5 10 10 10 10 10 10 15 15 15 15 15 15 15 15 15 20 20 20 20 25 25 30 40 91 56 56 61 45 40 45 137 132 45 45 51 40 35 40 40 40 51 76 255 255 255 255 255 255 255 255 255 255 255 255 255 255 255 255 255 255 255 255 255 255 255 255 255 255 255 255 255 255 255 255 255 255 255 255 255 86 91 25 20 15 15 15 15 10 10 10 10 10 10 10 10 10 10 5 
0 5 10 10 10 10 15 15 15 15 15 15 15 15 15 15 20 20 20 20 20 25 25 30 35 45 56 147 249 71 56 56 66 112 224 61 76 45 40 40 40 45 56 127 255 255 255 255 255 255 255 255 255 255 255 255 255 255 255 255 255 255 255 255 255 255 255 255 255 255 255 255 255 255 255 255 255 255 255 255 71 40 30 25 20 15 15 15 15 10 10 10 10 10 10 10 10 10 10 5 
0 5 10 10 10 15 15 15 15 15 15 15 15 15 15 20 20 20 20 20 20 25 30 30 35 40 51 71 255 198 96 142 91 255 193 91 142 66 86 51 51 51 66 255 255 255 255 255 255 255 255 255 255 255 255 255 255 255 255 255 255 255 255 255 255 255 255 255 255 255 255 255 255 255 255 255 255 255 255 255 61 40 30 25 20 15 15 15 15 10 10 10 10 10 10 10 10 10 10 5 
0 10 10 10 15 15 15 15 15 15 15 15 15 15 20 20 20 20 20 20 20 25 30 30 35 40 66 255 255 255 153 255 255 255 255 255 255 122 198 66 56 56 137 255 255 255 255 255 255 255 255 255 255 255 255 255 255 255 255 255 255 255 255 255 255 255 255 255 255 255 255 255 255 255 255 255 255 255 255 255 122 56 30 25 20 15 15 15 15 10 10 10 10 10 10 10 10 10 10 10 
0 10 10 15 15 15 15 15 15 15 15 15 15 20 20 20 20 20 20 20 25 30 30 30 45 51 61 81 255 255 255 255 255 255 255 255 255 255 255 255 66 66 255 255 255 255 255 255 255 255 255 255 255 255 255 255 255 255 255 255 255 255 255 255 255 255 255 255 255 255 255 255 255 255 255 255 255 255 255 255 255 255 30 20 20 15 15 15 15 10 10 10 10 10 10 10 10 10 10 10 
0 10 15 15 15 15 15 15 15 15 15 15 20 20 20 20 20 20 20 25 30 35 35 40 147 76 122 178 255 255 255 255 255 255 255 255 255 255 255 255 158 76 255 255 255 255 255 255 255 255 255 255 255 255 255 255 255 255 255 255 255 255 255 255 255 255 255 255 255 255 255 255 255 255 255 255 255 255 255 255 56 35 25 20 20 15 15 15 15 15 10 10 10 10 10 10 10 10 10 10 
0 10 15 15 15 15 15 15 15 15 15 20 20 20 20 20 25 25 30 40 81 40 40 40 51 91 255 255 255 255 255 255 255 255 255 255 255 255 255 255 255 96 255 255 255 255 255 255 255 255 255 255 255 255 255 255 255 255 255 255 255 255 255 255 255 255 255 255 255 255 255 255 255 255 255 255 255 255 255 255 137 30 25 20 20 15 15 15 15 15 10 10 10 10 10 10 10 10 10 10 
0 15 15 15 15 15 15 15 15 15 20 20 25 25 25 25 25 30 30 35 204 51 51 56 61 168 255 255 255 255 255 255 255 255 255 255 255 255 255 255 255 132 255 255 255 255 255 255 255 255 255 255 255 255 255 255 255 255 255 255 255 255 255 255 255 255 255 255 255 255 255 255 255 255 255 255 255 255 255 255 45 30 25 20 20 15 15 15 15 15 10 10 10 10 10 10 10 10 10 10 
0 15 15 15 15 15 15 15 15 20 25 25 25 25 25 30 30 30 35 40 51 107 71 81 76 219 255 255 255 255 255 255 255 255 255 255 255 255 255 255 255 255 255 255 255 255 255 255 255 255 255 255 255 255 255 255 255 255 255 255 255 255 255 255 255 255 255 255 255 255 255 255 255 255 255 255 255 255 255 255 35 25 20 20 20 15 15 15 15 15 10 10 10 10 10 10 10 10 10 10 
0 20 20 20 20 25 25 30 35 30 30 25 25 25 30 30 30 35 40 45 61 96 255 255 255 255 255 255 255 255 255 255 255 255 255 255 255 255 255 255 255 255 255 255 255 255 255 255 255 255 255 255 255 255 255 255 255 255 255 255 255 255 255 255 255 255 255 255 255 255 255 255 255 255 255 255 255 255 86 40 30 25 20 20 20 15 15 15 15 15 10 10 10 10 10 10 10 10 10 10 
0 20 20 25 25 25 30 30 56 30 35 35 40 40 35 40 40 61 51 61 112 153 255 255 255 255 255 255 255 255 255 255 255 255 255 255 255 255 255 255 255 255 255 255 255 255 255 255 255 255 255 255 255 255 255 255 255 255 255 255 255 255 255 255 255 255 255 255 255 255 255 255 255 255 255 255 255 255 40 35 30 25 20 20 20 15 15 15 15 15 10 10 10 10 10 10 10 10 10 10 
255 255 255 255 255 255 255 255 255 255 255 255 255 255 255 255 255 255 255 255 255 255 255 255 255 255 255 255 255 255 255 255 255 255 255 255 255 255 255 255 255 255 255 255 255 255 255 255 255 255 255 255 255 255 255 255 255 255 255 255 255 255 255 255 255 255 255 255 255 255 255 255 255 255 255 255 76 51 40 30 30 25 20 20 20 15 15 15 15 15 10 10 10 10 10 10 10 10 10 10 
0 20 20 25 25 25 30 30 56 30 35 35 40 40 35 40 40 61 51 61 112 153 255 255 255 255 255 255 255 255 255 255 255 255 255 255 255 255 255 255 255 255 255 255 255 255 255 255 255 255 255 255 255 255 255 255 255 255 255 255 255 255 255 255 255 255 255 255 255 255 255 255 255 255 255 255 255 255 40 35 30 25 20 20 20 15 15 15 15 15 10 10 10 10 10 10 10 10 10 10 
0 20 20 20 20 25 25 30 35 30 30 25 25 25 30 30 30 35 40 45 61 96 255 255 255 255 255 255 255 255 255 255 255 255 255 255 255 255 255 255 255 255 255 255 255 255 255 255 255 255 255 255 255 255 255 255 255 255 255 255 255 255 255 255 255 255 255 255 255 255 255 255 255 255 255 255 255 255 86 40 30 25 20 20 20 15 15 15 15 15 10 10 10 10 10 10 10 10 10 10 
0 15 15 15 15 15 15 15 15 20 25 25 25 25 25 30 30 30 35 40 51 107 71 81 76 219 255 255 255 255 255 255 255 255 255 255 255 255 255 255 255 255 255 255 255 255 255 255 255 255 255 255 255 255 255 255 255 255 255 255 255 255 255 255 255 255 255 255 255 255 255 255 255 255 255 255 255 255 255 255 35 25 20 20 20 15 15 15 15 15 10 10 10 10 10 10 10 10 10 10 
0 15 15 15 15 15 15 15 15 15 20 20 25 25 25 25 25 30 30 35 204 51 51 56 61 168 255 255 255 255 255 255 255 255 255 255 255 255 255 255 255 132 255 255 255 255 255 255 255 255 255 255 255 255 255 255 255 255 255 255 255 255 255 255 255 255 255 255 255 255 255 255 255 255 255 255 255 255 255 255 45 30 25 20 20 15 15 15 15 15 10 10 10 10 10 10 10 10 10 10 
0 10 15 15 15 15 15 15 15 15 15 20 20 20 20 20 25 25 30 40 81 40 40 40 51 91 255 255 255 255 255 255 255 255 255 255 255 255 255 255 255 96 255 255 255 255 255 255 255 255 255 255 255 255 255 255 255 255 255 255 255 255 255 255 255 255 255 255 255 255 255 255 255 255 255 255 255 255 255 255 137 30 25 20 20 15 15 15 15 15 10 10 10 10 10 10 10 10 10 10 
0 10 15 15 15 15 15 15 15 15 15 15 20 20 20 20 20 20 20 25 30 35 35 40 147 76 122 178 255 255 255 255 255 255 255 255 255 255 255 255 158 76 255 255 255 255 255 255 255 255 255 255 255 255 255 255 255 255 255 255 255 255 255 255 255 255 255 255 255 255 255 255 255 255 255 255 255 255 255 255 56 35 25 20 20 15 15 15 15 15 10 10 10 10 10 10 10 10 10 10 
0 10 10 15 15 15 15 15 15 15 15 15 15 20 20 20 20 20 20 20 25 30 30 30 45 51 61 81 255 255 255 255 255 255 255 255 255 255 255 255 66 66 255 255 255 255 255 255 255 255 255 255 255 255 255 255 255 255 255 255 255 255 255 255 255 255 255 255 255 255 255 255 255 255 255 255 255 255 255 255 255 255 30 20 20 15 15 15 15 10 10 10 10 10 10 10 10 10 10 10 
0 10 10 10 15 15 15 15 15 15 15 15 15 15 20 20 20 20 20 20 20 25 30 30 35 40 66 255 255 255 153 255 255 255 255 255 255 122 198 66 56 56 137 255 255 255 255 255 255 255 255 255 255 255 255 255 255 255 255 255 255 255 255 255 255 255 255 255 255 255 255 255 255 255 255 255 255 255 255 255 122 56 30 25 20 15 15 15 15 10 10 10 10 10 10 10 10 10 10 10 
0 5 10 10 10 15 15 15 15 15 15 15 15 15 15 20 20 20 20 20 20 25 30 30 35 40 51 71 255 198 96 142 91 255 193 91 142 66 86 51 51 51 66 255 255 255 255 255 255 255 255 255 255 255 255 255 255 255 255 255 255 255 255 255 255 255 255 255 255 255 255 255 255 255 255 255 255 255 255 255 61 40 30 25 20 15 15 15 15 10 10 10 10 10 10 10 10 10 10 5 
0 5 10 10 10 10 15 15 15 15 15 15 15 15 15 15 20 20 20 20 20 25 25 30 35 45 56 147 249 71 56 56 66 112 224 61 76 45 40 40 40 45 56 127 255 255 255 255 255 255 255 255 255 255 255 255 255 255 255 255 255 255 255 255 255 255 255 255 255 255 255 255 255 255 255 255 255 255 255 255 71 40 30 25 20 15 15 15 15 10 10 10 10 10 10 10 10 10 10 5 
0 5 10 10 10 10 10 10 15 15 15 15 15 15 15 15 15 20 20 20 20 25 25 30 40 91 56 56 61 45 40 45 137 132 45 45 51 40 35 40 40 40 51 76 255 255 255 255 255 255 255 255 255 255 255 255 255 255 255 255 255 255 255 255 255 255 255 255 255 255 255 255 255 255 255 255 255 255 255 255 255 86 91 25 20 15 15 15 15 10 10 10 10 10 10 10 10 10 10 5 
0 0 10 10 10 10 10 10 10 10 15 15 15 15 15 15 15 15 20 20 20 20 25 25 45 56 40 35 35 30 35 35 86 45 35 35 30 30 30 35 35 35 45 214 255 255 255 255 255 255 255 255 255 255 255 255 255 255 255 255 255 255 255 255 255 255 255 255 255 255 255 255 255 255 255 255 255 255 255 255 158 81 45 25 20 15 15 15 10 10 10 10 10 10 10 10 10 10 10 5 
0 0 5 10 10 10 10 10 10 10 10 10 10 15 15 15 15 15 15 15 20 20 25 25 35 91 35 30 30 30 30 30 40 35 30 30 30 30 30 30 35 35 40 45 66 142 255 255 255 255 255 255 255 255 255 255 255 255 255 255 255 255 255 255 255 255 255 255 255 255 255 255 255 255 255 255 255 255 132 61 51 45 86 25 20 15 15 15 10 10 10 10 10 10 10 10 10 10 5 5 
0 0 5 10 10 10 10 10 10 10 10 10 10 10 10 10 15 15 15 15 15 20 20 25 56 40 25 25 25 25 25 25 25 25 25 25 25 30 30 30 30 35 35 45 66 178 255 255 255 255 255 255 255 255 255 255 255 255 255 255 255 255 255 255 255 255 255 255 255 255 255 255 255 255 255 255 255 255 255 45 35 35 30 20 20 15 15 15 10 10 10 10 10 10 10 10 10 10 5 5 
0 0 5 10 10 10 10 10 10 10 10 10 10 10 10 10 10 10 10 15 15 15 15 20 25 25 25 25 25 25 20 20 20 20 20 25 25 25 25 25 30 30 35 45 142 255 255 255 255 255 255 255 255 255 255 255 255 255 255 255 255 255 255 255 255 255 255 255 255 255 255 255 255 255 255 255 255 255 56 40 30 30 25 20 20 15 15 10 10 10 10 10 10 10 10 10 10 10 5 5 
0 0 5 5 10 10 10 10 10 10 10 10 10 10 10 10 10 10 10 10 10 15 15 15 15 20 20 20 20 20 20 20 20 20 20 20 20 25 25 25 25 25 30 45 56 224 66 91 255 255 255 255 255 255 255 255 255 255 255 255 255 255 255 255 255 255 255 255 255 255 255 255 255 255 255 255 147 91 51 40 30 25 25 20 20 15 15 10 10 10 10 10 10 10 10 10 10 5 5 5 
0 0 0 5 10 10 10 10 10 10 10 10 10 10 10 10 10 10 10 10 10 10 10 15 15 15 15 20 20 20 20 20 20 20 20 20 20 20 20 25 25 25 25 30 35 45 45 56 76 137 255 255 255 255 255 255 255 255 255 255 255 255 255 255 255 255 255 255 255 255 255 255 255 255 255 255 255 255 255 45 30 25 20 20 15 15 15 10 10 10 10 10 10 10 10 10 10 5 5 5 
0 0 0 5 5 10 10 10 10 10 10 10 10 10 10 10 10 10 10 10 10 10 10 10 10 15 15 15 15 20 20 20 20 20 20 20 20 20 20 20 25 25 25 25 30 35 40 56 91 255 255 255 255 255 255 255 255 255 255 255 255 255 255 255 255 255 255 255 255 255 255 255 255 255 127 255 255 255 112 51 35 25 20 20 15 15 10 10 10 10 10 10 10 10 10 10 5 5 5 5 
0 0 0 5 5 10 10 10 10 10 10 10 10 10 10 10 10 10 10 10 10 10 10 10 10 10 10 15 15 15 15 20 20 20 20 20 20 20 20 20 20 25 25 25 30 35 40 56 122 255 255 255 255 255 255 255 255 255 255 255 255 255 255 255 255 255 255 255 255 255 255 255 255 102 71 255 255 193 255 66 56 25 20 20 15 15 10 10 10 10 10 10 10 10 10 10 5 5 5 5 
0 0 0 0 5 5 10 10 10 10 10 10 10 10 10 10 10 10 10 10 10 10 10 10 10 10 10 10 15 15 15 15 15 15 20 20 20 20 20 20 20 20 25 25 25 30 45 61 255 255 255 255 71 255 255 255 255 255 255 255 255 255 255 255 255 255 255 255 255 255 255 255 76 61 51 66 127 71 66 86 71 30 20 15 15 10 10 10 10 10 10 10 10 10 10 5 5 5 5 5 
0 0 0 0 5 5 10 10 10 10 10 10 10 10 10 10 10 10 10 10 10 10 10 10 10 10 10 10 10 15 15 15 15 15 15 15 15 20 20 20 20 20 20 25 25 30 40 168 127 234 96 71 51 61 158 255 255 255 255 255 255 255 255 255 255 255 255 255 255 112 127 255 81 45 40 45 45 45 56 66 35 25 20 15 15 10 10 10 10 10 10 10 10 10 10 5 5 5 5 5 
0 0 0 0 5 5 5 10 10 10 10 10 10 10 10 10 10 10 10 10 10 10 10 10 10 10 10 10 10 10 10 15 15 15 15 15 15 15 15 20 20 20 20 20 25 30 45 142 102 91 51 40 40 51 209 188 66 255 234 117 117 255 255 255 255 112 91 255 81 66 56 122 91 35 35 30 30 35 40 56 30 20 15 15 15 10 10 10 10 10 10 10 10 10 5 5 5 5 5 5 
0 0 0 0 0 5 5 5 10 10 10 10 10 10 10 10 10 10 10 10 10 10 10 10 10 10 10 10 10 10 10 10 15 15 15 15 15 15 15 15 15 20 20 20 20 25 40 40 40 81 45 35 35 40 45 45 45 51 61 91 255 255 255 255 255 255 76 56 51 40 40 102 35 30 25 25 25 30 35 40 25 20 15 15 10 10 10 10 10 10 10 10 10 5 5 5 5 5 5 5 
0 0 0 0 0 5 5 5 10 10 10 10 10 10 10 10 10 10 10 10 10 10 10 10 10 10 10 10 10 10 10 10 10 15 15 15 15 15 15 15 15 15 15 20 20 20 25 30 30 30 30 30 30 30 30 35 40 45 56 255 255 255 255 255 255 255 127 56 40 35 35 30 25 25 25 25 25 25 25 20 20 15 15 15 10 10 10 10 10 10 10 10 10 5 5 5 5 5 5 5 
0 0 0 0 0 5 5 5 5 10 10 10 10 10 10 10 10 10 10 10 10 10 10 10 10 10 10 10 10 10 10 10 10 10 15 15 15 15 15 15 15 15 15 15 15 20 20 20 25 25 25 25 25 30 30 30 35 40 76 255 255 255 255 255 255 255 255 86 40 35 30 25 25 25 25 20 20 20 20 20 15 15 15 10 10 10 10 10 10 10 10 10 5 5 5 5 5 5 5 5 
0 0 0 0 0 0 5 5 5 5 10 10 10 10 10 10 10 10 10 10 10 10 10 10 10 10 10 10 10 10 10 10 10 10 10 15 15 15 15 15 15 15 15 15 15 15 15 20 20 20 25 25 25 25 30 30 35 40 86 255 255 255 255 255 255 255 193 56 40 30 30 25 20 20 20 20 20 20 15 15 15 15 10 10 10 10 10 10 10 10 10 5 5 5 5 5 5 5 5 5 
0 0 0 0 0 0 5 5 5 5 5 10 10 10 10 10 10 10 10 10 10 10 10 10 10 10 10 10 10 10 10 10 10 10 10 10 15 15 15 15 15 15 15 15 15 15 15 15 20 20 20 20 25 25 25 30 35 40 51 178 255 255 255 255 255 255 107 71 51 30 25 20 20 20 20 20 20 15 15 15 15 15 10 10 10 10 10 10 10 10 5 5 5 5 5 5 5 5 5 5 
0 0 0 0 0 0 0 5 5 5 5 5 10 10 10 10 10 10 10 10 10 10 10 10 10 10 10 10 10 10 10 10 10 10 10 10 10 10 15 15 15 15 15 15 15 15 15 15 15 20 20 20 20 20 25 25 30 66 71 91 76 137 255 255 122 107 61 76 35 25 20 20 20 20 20 15 15 15 15 15 15 10 10 10 10 10 10 10 10 5 5 5 5 5 5 5 5 5 5 5 
0 0 0 0 0 0 0 5 5 5 5 5 5 10 10 10 10 10 10 10 10 10 10 10 10 10 10 10 10 10 10 10 10 10 10 10 10 10 10 15 15 15 15 15 15 15 15 15 15 15 15 20 20 20 20 25 25 35 45 142 51 66 188 255 153 56 45 40 30 25 20 20 20 20 15 15 15 15 15 15 10 10 10 10 10 10 10 10 5 5 5 5 5 5 5 5 5 5 5 5 
0 0 0 0 0 0 0 0 5 5 5 5 5 5 10 10 10 10 10 10 10 10 10 10 10 10 10 10 10 10 10 10 10 10 10 10 10 10 10 10 15 15 15 15 15 15 15 15 15 15 15 15 20 20 20 20 25 25 30 40 40 81 81 219 71 51 35 30 25 20 20 20 20 15 15 15 15 15 15 15 10 10 10 10 10 10 10 5 5 5 5 5 5 5 5 5 5 5 5 5 
0 0 0 0 0 0 0 0 5 5 5 5 5 5 5 10 10 10 10 10 10 10 10 10 10 10 10 10 10 10 10 10 10 10 10 10 10 10 10 10 10 15 15 15 15 15 15 15 15 15 15 15 15 20 20 20 20 25 30 30 35 40 51 127 56 40 35 30 25 20 20 15 15 15 15 15 15 15 15 10 10 10 10 10 10 10 5 5 5 5 5 5 5 5 5 5 5 5 5 5 
0 0 0 0 0 0 0 0 0 5 5 5 5 5 5 5 10 10 10 10 10 10 10 10 10 10 10 10 10 10 10 10 10 10 10 10 10 10 10 10 10 10 10 15 15 15 15 15 15 15 15 15 15 20 20 20 20 20 25 30 35 40 51 91 71 45 35 25 25 20 15 15 15 15 15 15 15 15 10 10 10 10 10 10 10 5 5 5 5 5 5 5 5 5 5 5 5 5 5 5 
0 0 0 0 0 0 0 0 0 5 5 5 5 5 5 5 5 10 10 10 10 10 10 10 10 10 10 10 10 10 10 10 10 10 10 10 10 10 10 10 10 10 10 10 15 15 15 15 15 15 15 15 15 15 20 20 20 20 25 25 30 40 76 51 45 76 51 25 20 15 15 15 15 15 15 15 15 10 10 10 10 10 10 10 5 5 5 5 5 5 5 5 5 5 5 5 5 5 5 5 
0 0 0 0 0 0 0 0 0 0 5 5 5 5 5 5 5 5 10 10 10 10 10 10 10 10 10 10 10 10 10 10 10 10 10 10 10 10 10 10 10 10 10 10 10 15 15 15 15 15 15 15 15 15 15 20 20 20 25 25 30 66 71 35 30 30 51 25 20 15 15 15 15 15 15 15 10 10 10 10 10 10 10 5 5 5 5 5 5 5 5 5 5 5 5 5 5 5 5 5 
0 0 0 0 0 0 0 0 0 0 5 5 5 5 5 5 5 5 5 5 10 10 10 10 10 10 10 10 10 10 10 10 10 10 10 10 10 10 10 10 10 10 10 10 10 10 10 15 15 15 15 15 15 15 15 15 20 20 20 25 35 71 51 25 25 25 25 20 15 15 15 15 15 15 10 10 10 10 10 10 10 5 5 5 5 5 5 5 5 5 5 5 5 5 5 5 5 5 5 5 
0 0 0 0 0 0 0 0 0 0 0 5 5 5 5 5 5 5 5 5 5 10 10 10 10 10 10 10 10 10 10 10 10 10 10 10 10 10 10 10 10 10 10 10 10 10 10 10 10 15 15 15 15 15 15 15 15 20 20 25 35 51 30 25 20 20 20 15 15 15 15 15 15 10 10 10 10 10 10 10 5 5 5 5 5 5 5 5 5 5 5 5 5 5 5 5 5 5 5 5 
0 0 0 0 0 0 0 0 0 0 0 0 5 5 5 5 5 5 5 5 5 5 5 10 10 10 10 10 10 10 10 10 10 10 10 10 10 10 10 10 10 10 10 10 10 10 10 10 10 10 10 15 15 15 15 15 15 15 20 30 40 35 25 20 20 20 15 15 15 15 15 10 10 10 10 10 10 10 5 5 5 5 5 5 5 5 5 5 5 5 5 5 5 5 5 5 5 5 5 5 
0 0 0 0 0 0 0 0 0 0 0 0 5 5 5 5 5 5 5 5 5 5 5 5 5 10 10 10 10 10 10 10 10 10 10 10 10 10 10 10 10 10 10 10 10 10 10 10 10 10 10 10 10 15 15 15 15 15 15 15 20 20 20 20 15 15 15 15 15 10 10 10 10 10 10 10 5 5 5 5 5 5 5 5 5 5 5 5 5 5 5 5 5 5 5 5 5 5 5 5 
0 0 0 0 0 0 0 0 0 0 0 0 0 5 5 5 5 5 5 5 5 5 5 5 5 5 5 10 10 10 10 10 10 10 10 10 10 10 10 10 10 10 10 10 10 10 10 10 10 10 10 10 10 10 10 10 10 15 15 15 15 15 15 15 15 10 10 10 10 10 10 10 10 10 5 5 5 5 5 5 5 5 5 5 5 5 5 5 5 5 5 5 5 5 5 5 5 5 5 5 
0 0 0 0 0 0 0 0 0 0 0 0 0 0 5 5 5 5 5 5 5 5 5 5 5 5 5 5 5 10 10 10 10 10 10 10 10 10 10 10 10 10 10 10 10 10 10 10 10 10 10 10 10 10 10 10 10 10 10 10 10 10 10 10 10 10 10 10 10 10 10 10 5 5 5 5 5 5 5 5 5 5 5 5 5 5 5 5 5 5 5 5 5 5 5 5 5 5 5 5 
0 0 0 0 0 0 0 0 0 0 0 0 0 0 0 5 5 5 5 5 5 5 5 5 5 5 5 5 5 5 5 5 10 10 10 10 10 10 10 10 10 10 10 10 10 10 10 10 10 10 10 10 10 10 10 10 10 10 10 10 10 10 10 10 10 10 10 10 10 5 5 5 5 5 5 5 5 5 5 5 5 5 5 5 5 5 5 5 5 5 5 5 5 5 5 5 5 5 5 5 
0 0 0 0 0 0 0 0 0 0 0 0 0 0 0 5 5 5 5 5 5 5 5 5 5 5 5 5 5 5 5 5 5 5 5 10 10 10 10 10 10 10 10 10 10 10 10 10 10 10 10 10 10 10 10 10 10 10 10 10 10 10 10 10 10 10 5 5 5 5 5 5 5 5 5 5 5 5 5 5 5 5 5 5 5 5 5 5 5 5 5 5 5 5 5 5 5 5 5 5 
0 0 0 0 0 0 0 0 0 0 0 0 0 0 0 0 5 5 5 5 5 5 5 5 5 5 5 5 5 5 5 5 5 5 5 5 5 5 5 10 10 10 10 10 10 10 10 10 10 10 10 10 10 10 10 10 10 10 10 10 10 10 5 5 5 5 5 5 5 5 5 5 5 5 5 5 5 5 5 5 5 5 5 5 5 5 5 5 5 5 5 5 5 5 5 5 5 5 5 5 
0 0 0 0 0 0 0 0 0 0 0 0 0 0 0 0 0 5 5 5 5 5 5 5 5 5 5 5 5 5 5 5 5 5 5 5 5 5 5 5 5 5 5 5 5 5 5 10 10 10 10 10 10 10 5 5 5 5 5 5 5 5 5 5 5 5 5 5 5 5 5 5 5 5 5 5 5 5 5 5 5 5 5 5 5 5 5 5 5 5 5 5 5 5 5 5 5 5 5 5 
0 0 0 0 0 0 0 0 0 0 0 0 0 0 0 0 0 0 5 5 5 5 5 5 5 5 5 5 5 5 5 5 5 5 5 5 5 5 5 5 5 5 5 5 5 5 5 5 5 5 5 5 5 5 5 5 5 5 5 5 5 5 5 5 5 5 5 5 5 5 5 5 5 5 5 5 5 5 5 5 5 5 5 5 5 5 5 5 5 5 5 5 5 5 5 5 5 5 5 5 
0 0 0 0 0 0 0 0 0 0 0 0 0 0 0 0 0 0 0 5 5 5 5 5 5 5 5 5 5 5 5 5 5 5 5 5 5 5 5 5 5 5 5 5 5 5 5 5 5 5 5 5 5 5 5 5 5 5 5 5 5 5 5 5 5 5 5 5 5 5 5 5 5 5 5 5 5 5 5 5 5 5 5 5 5 5 5 5 5 5 5 5 5 5 5 5 5 5 5 5 
0 0 0 0 0 0 0 0 0 0 0 0 0 0 0 0 0 0 0 0 5 5 5 5 5 5 5 5 5 5 5 5 5 5 5 5 5 5 5 5 5 5 5 5 5 5 5 5 5 5 5 5 5 5 5 5 5 5 5 5 5 5 5 5 5 5 5 5 5 5 5 5 5 5 5 5 5 5 5 5 5 5 5 5 5 5 5 5 5 5 5 5 5 5 5 5 5 5 5 5 
0 0 0 0 0 0 0 0 0 0 0 0 0 0 0 0 0 0 0 0 0 5 5 5 5 5 5 5 5 5 5 5 5 5 5 5 5 5 5 5 5 5 5 5 5 5 5 5 5 5 5 5 5 5 5 5 5 5 5 5 5 5 5 5 5 5 5 5 5 5 5 5 5 5 5 5 5 5 5 5 5 5 5 5 5 5 5 5 5 5 5 5 5 5 5 5 5 5 5 5 
0 0 0 0 0 0 0 0 0 0 0 0 0 0 0 0 0 0 0 0 0 0 5 5 5 5 5 5 5 5 5 5 5 5 5 5 5 5 5 5 5 5 5 5 5 5 5 5 5 5 5 5 5 5 5 5 5 5 5 5 5 5 5 5 5 5 5 5 5 5 5 5 5 5 5 5 5 5 5 5 5 5 5 5 5 5 5 5 5 5 5 5 5 5 5 5 5 5 5 5 
